src/img/codeIcon.svg

<svg width="42" height="39" viewBox="0 0 42 39" fill="none" xmlns="http://www.w3.org/2000/svg">
<g clip-path="url(#clip0)">
<g filter="url(#filter0_d)">
<path d="M12.537 23.7407L6.3 29.963C5.607 30.5852 4.683 31 3.675 31C2.70033 31 1.76558 30.6176 1.07638 29.9369C0.387187 29.2562 0 28.333 0 27.3704V26.8519L2.1 11.5452C2.541 6.75407 6.594 3 11.55 3H30.45C35.406 3 39.459 6.75407 39.9 11.5452L42 26.8519V27.3704C42 28.333 41.6128 29.2562 40.9236 29.9369C40.2344 30.6176 39.2997 31 38.325 31C37.317 31 36.393 30.5852 35.7 29.963L29.463 23.7407H12.537ZM10.5 7.14815V11.2963H6.3V13.3704H10.5V17.5185H12.6V13.3704H16.8V11.2963H12.6V7.14815H10.5ZM30.45 7.14815C30.0323 7.14815 29.6317 7.31204 29.3363 7.60376C29.0409 7.89548 28.875 8.29114 28.875 8.7037C28.875 9.11626 29.0409 9.51192 29.3363 9.80365C29.6317 10.0954 30.0323 10.2593 30.45 10.2593C30.8677 10.2593 31.2683 10.0954 31.5637 9.80365C31.8591 9.51192 32.025 9.11626 32.025 8.7037C32.025 8.29114 31.8591 7.89548 31.5637 7.60376C31.2683 7.31204 30.8677 7.14815 30.45 7.14815ZM26.775 10.7778C26.3573 10.7778 25.9567 10.9417 25.6613 11.2334C25.3659 11.5251 25.2 11.9208 25.2 12.3333C25.2 12.7459 25.3659 13.1416 25.6613 13.4333C25.9567 13.725 26.3573 13.8889 26.775 13.8889C27.1927 13.8889 27.5933 13.725 27.8887 13.4333C28.1841 13.1416 28.35 12.7459 28.35 12.3333C28.35 11.9208 28.1841 11.5251 27.8887 11.2334C27.5933 10.9417 27.1927 10.7778 26.775 10.7778V10.7778ZM34.125 10.7778C33.7073 10.7778 33.3067 10.9417 33.0113 11.2334C32.7159 11.5251 32.55 11.9208 32.55 12.3333C32.55 12.7459 32.7159 13.1416 33.0113 13.4333C33.3067 13.725 33.7073 13.8889 34.125 13.8889C34.5427 13.8889 34.9433 13.725 35.2387 13.4333C35.5341 13.1416 35.7 12.7459 35.7 12.3333C35.7 11.9208 35.5341 11.5251 35.2387 11.2334C34.9433 10.9417 34.5427 10.7778 34.125 10.7778ZM30.45 14.4074C30.0323 14.4074 29.6317 14.5713 29.3363 14.863C29.0409 15.1547 28.875 15.5504 28.875 15.963C28.875 16.3755 29.0409 16.7712 29.3363 17.0629C29.6317 17.3546 30.0323 17.5185 30.45 17.5185C30.8677 17.5185 31.2683 17.3546 31.5637 17.0629C31.8591 16.7712 32.025 16.3755 32.025 15.963C32.025 15.5504 31.8591 15.1547 31.5637 14.863C31.2683 14.5713 30.8677 14.4074 30.45 14.4074Z" fill="#0072E5"/>
</g>
</g>
<defs>
<filter id="filter0_d" x="-1" y="3" width="44" height="32" filterUnits="userSpaceOnUse" color-interpolation-filters="sRGB">
<feFlood flood-opacity="0" result="BackgroundImageFix"/>
<feColorMatrix in="SourceAlpha" type="matrix" values="0 0 0 0 0 0 0 0 0 0 0 0 0 0 0 0 0 0 127 0"/>
<feOffset dy="3"/>
<feGaussianBlur stdDeviation="0.5"/>
<feColorMatrix type="matrix" values="0 0 0 0 0 0 0 0 0 0 0 0 0 0 0 0 0 0 0.25 0"/>
<feBlend mode="normal" in2="BackgroundImageFix" result="effect1_dropShadow"/>
<feBlend mode="normal" in="SourceGraphic" in2="effect1_dropShadow" result="shape"/>
</filter>
<clipPath id="clip0">
<rect width="42" height="39" fill="white"/>
</clipPath>
</defs>
</svg>

<svg width="42" height="39" fill="none" xmlns="http://www.w3.org/2000/svg"><g filter="url(#filter0_d)" clip-path="url(#clip0)"><path d="M12.54 23.74L6.3 29.96A3.95 3.95 0 013.67 31a3.7 3.7 0 01-2.6-1.06A3.6 3.6 0 010 27.37v-.52l2.1-15.3A9.45 9.45 0 0111.55 3h18.9c4.96 0 9 3.75 9.45 8.55l2.1 15.3v.52a3.6 3.6 0 01-1.08 2.57 3.7 3.7 0 01-2.6 1.06c-1 0-1.93-.41-2.62-1.04l-6.24-6.22H12.54zM10.5 7.14v4.16H6.3v2.07h4.2v4.15h2.1v-4.15h4.2V11.3h-4.2V7.15h-2.1zm19.95 0c-.42 0-.82.17-1.11.46a1.55 1.55 0 000 2.2 1.59 1.59 0 002.22 0 1.55 1.55 0 000-2.2c-.3-.29-.7-.45-1.11-.45zm-3.68 3.64a1.55 1.55 0 00-1.11 2.66 1.59 1.59 0 002.23 0 1.55 1.55 0 000-2.2c-.3-.3-.7-.46-1.12-.46zm7.36 0a1.55 1.55 0 00-1.11 2.66 1.59 1.59 0 002.22 0 1.55 1.55 0 000-2.2c-.3-.3-.7-.46-1.12-.46zm-3.68 3.63a1.55 1.55 0 00-1.11 2.66 1.59 1.59 0 002.22 0 1.55 1.55 0 000-2.2c-.3-.3-.7-.46-1.11-.46z" fill="#0072E5"/></g><defs><clipPath id="clip0"><path fill="#fff" d="M0 0h42v39H0z"/></clipPath><filter id="filter0_d" x="-1" y="3" width="44" height="32" filterUnits="userSpaceOnUse" color-interpolation-filters="sRGB"><feFlood flood-opacity="0" result="BackgroundImageFix"/><feColorMatrix in="SourceAlpha" values="0 0 0 0 0 0 0 0 0 0 0 0 0 0 0 0 0 0 127 0"/><feOffset dy="3"/><feGaussianBlur stdDeviation=".5"/><feColorMatrix values="0 0 0 0 0 0 0 0 0 0 0 0 0 0 0 0 0 0 0.25 0"/><feBlend in2="BackgroundImageFix" result="effect1_dropShadow"/><feBlend in="SourceGraphic" in2="effect1_dropShadow" result="shape"/></filter></defs></svg>
